X: 022
T: Lads & Lasses of Bunkerhill
%R: march
Z: 2017 John Chambers <jc:trillian.mit.edu>
B: John Treat - "Gamut for the Fifes", 1779, p.1 #2
F: https://archive.org/details/GamutFortheFifes
M: 2/4
L: 1/16
K: G
% - - - - - - - - - - - - - - - - - - - - - - - - -
g2 |\
d2B2 A2G2 | (FGAB) A2c2 | B2G2 B2d2 | g4 gfed |\
d2B2 A2G2 | F2A2 A2c2 | D2G2 F2A2 | G4- G2 :|
|: d2 |\
e2f2 g2e2 | (agfe d2)d2 | e2f2 g2e2 | Tf6 d2 |\
e2f2 g2e2 | f2g2 a2a2 | b2g2 g2ef | g4 gfe2 |
d2B2 A2G2 | (FGAB) A2A2 | B2G2 B2d2 | g4 gfe2 |\
d2B2 A2G2 | F2A2 A2c2 | D2G2 F2A2 | G4- G2 :|
% - - - - - - - - - - - - - - - - - - - - - - - - -
